X: 633
T:Coates Hall
M:4/4
L:1/8
C:Billy Pigg
B:Northumbrian Pipers Second Tune Book, Northumbrian Pipers
B: Society 1981 ISBN 0902510088
N:Posted to the woodenflute mailing list March 2003
Z:Steve Mansfield 03 March 2003
K:D
ag | fadf egce | dfAd FADF | GBdg FAdf | eAce agfe | dfAd FADF |
GBdg FAdf | gecA afdA | Ggec d2 :| fg | aAgA fAeA | dDFA dFAd |
GBdg FAdf | eAce a2fg | aAgA fAeA | dDFA dFAd | GBdg FAdf |
gecA d2 fg | aAgA fAeA | dDFA dFAd | GBdg FAdf |
eAce agfe | dfAd FADF | GBdg FAdf | gecA afdA | Ggec d2 ||
<end>
<start>
